X: 3
T: The Redeside Hp
M: 4/4
L: 1/8
R: hornpipe
K: Gmaj
BA|GB,DG BDGF|EGce dBGF|EGCE DGcB|(3ABc (3BAG (3FED (3cBA|
GBDG BDGF|EGce dBGF|Egfe (3ded (3cBA|GgdB G2:|
Bc|(3ded Bd gdBd|~edBG EDB,C|(3DED B,D GDcB|(3ABc (3BAG (3FED Bc|
(3ded Bd gdBd|~edBG EDB,C|Dgfe (3ded (3cBA|GgdB G2Bc|
(3ded Bd gdBd|~edBG EDB,C|(3DED B,D GDcB|(3ABc (3BAG (3FED (3cBA|
GBDG BDGF|EGce dBGF|Egfe (3ded (3cBA|GgdB G2||
